places/64/folder-drag-accept.svg

<?xml version="1.0" encoding="UTF-8" standalone="no"?>
<svg
   xmlns:dc="http://purl.org/dc/elements/1.1/"
   xmlns:cc="http://creativecommons.org/ns#"
   xmlns:rdf="http://www.w3.org/1999/02/22-rdf-syntax-ns#"
   xmlns:svg="http://www.w3.org/2000/svg"
   xmlns="http://www.w3.org/2000/svg"
   xmlns:xlink="http://www.w3.org/1999/xlink"
   version="1.1"
   width="64"
   height="64"
   id="svg26114">
  <defs
     id="defs26116">
    <linearGradient
       x1="97.538795"
       y1="17.568415"
       x2="97.538795"
       y2="43.775608"
       id="linearGradient3483"
       xlink:href="#linearGradient3485"
       gradientUnits="userSpaceOnUse"
       gradientTransform="matrix(1.3191659,0,0,1.0439448,-70.596186,10.53389)" />
    <linearGradient
       id="linearGradient3485">
      <stop
         id="stop3487"
         style="stop-color:#ffffff;stop-opacity:1"
         offset="0" />
      <stop
         id="stop3489"
         style="stop-color:#ffffff;stop-opacity:0.23529412"
         offset="0.01749449" />
      <stop
         id="stop3491"
         style="stop-color:#ffffff;stop-opacity:0.15686275"
         offset="0.97909725" />
      <stop
         id="stop3493"
         style="stop-color:#ffffff;stop-opacity:0.39215687"
         offset="1" />
    </linearGradient>
    <linearGradient
       x1="22.934725"
       y1="49.629246"
       x2="22.809399"
       y2="36.657963"
       id="linearGradient3262"
       xlink:href="#linearGradient6129-963-697-142-998"
       gradientUnits="userSpaceOnUse"
       gradientTransform="matrix(1.5266702,0,0,1.0689655,-4.640106,10.96552)" />
    <linearGradient
       id="linearGradient6129-963-697-142-998">
      <stop
         id="stop4661"
         style="stop-color:#000000;stop-opacity:0.498"
         offset="0" />
      <stop
         id="stop4663"
         style="stop-color:#000000;stop-opacity:0"
         offset="1" />
    </linearGradient>
    <linearGradient
       x1="26.357426"
       y1="46.255367"
       x2="26.357426"
       y2="117.41338"
       id="linearGradient6563-1"
       xlink:href="#linearGradient4632-0-6-4-6-7"
       gradientUnits="userSpaceOnUse"
       gradientTransform="matrix(0.50136333,0,0,0.40680228,1.81771,9.1270703)" />
    <linearGradient
       id="linearGradient4632-0-6-4-6-7">
      <stop
         id="stop4634-4-4-7-1-8"
         style="stop-color:#b4cee1;stop-opacity:1"
         offset="0" />
      <stop
         id="stop4636-3-1-5-7-5"
         style="stop-color:#5d9fcd;stop-opacity:1"
         offset="1" />
    </linearGradient>
    <radialGradient
       cx="605.71429"
       cy="486.64789"
       r="117.14286"
       fx="605.71429"
       fy="486.64789"
       id="radialGradient3270"
       xlink:href="#linearGradient5060-820-86"
       gradientUnits="userSpaceOnUse"
       gradientTransform="matrix(-0.04016195,0,0,0.0329426,30.20402,40.92132)" />
    <linearGradient
       id="linearGradient5060-820-86">
      <stop
         id="stop2681-2"
         style="stop-color:#000000;stop-opacity:1"
         offset="0" />
      <stop
         id="stop2683-6"
         style="stop-color:#000000;stop-opacity:0"
         offset="1" />
    </linearGradient>
    <linearGradient
       x1="302.85715"
       y1="366.64789"
       x2="302.85715"
       y2="609.50507"
       id="linearGradient3273"
       xlink:href="#linearGradient5048-585-2"
       gradientUnits="userSpaceOnUse"
       gradientTransform="matrix(0.1076923,0,0,0.03294117,-6.923076,40.92219)" />
    <linearGradient
       id="linearGradient5048-585-2">
      <stop
         id="stop2667-5"
         style="stop-color:#000000;stop-opacity:0"
         offset="0" />
      <stop
         id="stop2669-5"
         style="stop-color:#000000;stop-opacity:1"
         offset="0.5" />
      <stop
         id="stop2671-7"
         style="stop-color:#000000;stop-opacity:0"
         offset="1" />
    </linearGradient>
    <radialGradient
       cx="605.71429"
       cy="486.64789"
       r="117.14286"
       fx="605.71429"
       fy="486.64789"
       id="radialGradient3281"
       xlink:href="#linearGradient5060-820-86"
       gradientUnits="userSpaceOnUse"
       gradientTransform="matrix(0.04016195,0,0,0.0329426,33.79598,40.92132)" />
    <linearGradient
       x1="97.538795"
       y1="8.8103228"
       x2="97.538795"
       y2="44.260689"
       id="linearGradient3295"
       xlink:href="#linearGradient9235-9-6"
       gradientUnits="userSpaceOnUse"
       gradientTransform="matrix(1.2749674,0,0,1.218292,-67.159176,-0.33920965)" />
    <linearGradient
       id="linearGradient9235-9-6">
      <stop
         id="stop9237-7-5"
         style="stop-color:#ffffff;stop-opacity:1"
         offset="0" />
      <stop
         id="stop9239-2-3-1"
         style="stop-color:#ffffff;stop-opacity:0.23529412"
         offset="0.1088333" />
      <stop
         id="stop9241-1-7"
         style="stop-color:#ffffff;stop-opacity:0.15686275"
         offset="0.97909725" />
      <stop
         id="stop9243-5-4"
         style="stop-color:#ffffff;stop-opacity:0.39215687"
         offset="1" />
    </linearGradient>
    <linearGradient
       x1="-51.786404"
       y1="53.514328"
       x2="-51.786404"
       y2="3.6336823"
       id="linearGradient3298"
       xlink:href="#linearGradient3104-8-8-97-4-6-11-5-5-1-0-5-3"
       gradientUnits="userSpaceOnUse"
       gradientTransform="matrix(1.0563766,0,0,1.0770552,69.97515,-2.5296497)" />
    <linearGradient
       id="linearGradient3104-8-8-97-4-6-11-5-5-1-0-5-3">
      <stop
         id="stop3106-5-4-3-5-0-2-1-0-1-2-7-8"
         style="stop-color:#000000;stop-opacity:0.32173914"
         offset="0" />
      <stop
         id="stop3108-4-3-7-8-2-0-7-9-4-9-4-5-3"
         style="stop-color:#000000;stop-opacity:0.27826086"
         offset="1" />
    </linearGradient>
    <linearGradient
       id="linearGradient4646-6-1-3-5-8-8-7-2">
      <stop
         id="stop4648-2-1-9-37-1-22-2-7"
         style="stop-color:#f9f9f9;stop-opacity:1"
         offset="0" />
      <stop
         id="stop4650-3-28-6-7-5-9-4-2"
         style="stop-color:#d8d8d8;stop-opacity:1"
         offset="1" />
    </linearGradient>
    <linearGradient
       x1="63.412205"
       y1="19.663828"
       x2="63.412205"
       y2="21.215551"
       id="linearGradient26112"
       xlink:href="#linearGradient4646-6-1-3-5-8-8-7-2"
       gradientUnits="userSpaceOnUse"
       gradientTransform="matrix(1.3847178,0,0,1.3814113,-70.621166,-2.6566197)" />
  </defs>
  <metadata
     id="metadata26119">
    <rdf:RDF>
      <cc:Work
         rdf:about="">
        <dc:format>image/svg+xml</dc:format>
        <dc:type
           rdf:resource="http://purl.org/dc/dcmitype/StillImage" />
        <dc:title />
      </cc:Work>
    </rdf:RDF>
  </metadata>
  <g
     id="layer1">
    <path
       d="m 7.50001,10 c -0.277,0 -0.5,0.223 -0.5,0.5 l 0,3.5 -2.5,0 c -0.277,0 -0.5,0.223 -0.5,0.5 l 0,15.5 L 60,30 60,14.5 C 60,14.223 59.777,14 59.5,14 L 28,14 28,10.5 C 28,10.223 27.777,10 27.5,10 z"
       id="rect3340-3-4"
       style="color:#000000;fill:url(#linearGradient26112);fill-opacity:1;fill-rule:nonzero;stroke:none;stroke-width:0.99992168;marker:none;visibility:visible;display:inline;overflow:visible;enable-background:accumulate" />
    <path
       d="m 8.00001,9.5001603 c -0.91501,0.0102 -1.5,0.45618 -1.5,1.3332897 l 0,2.66655 -1.506,0 c -0.99492,0 -1.494,0.47358 -1.494,1.34217 0.0456,13.71958 0,14.49301 0,15.65783 L 60.5,29.44389 60.5,15 c 0,-1.00007 -0.49995,-1.5 -1.5,-1.5 l -30.5,0 0,-2.66655 c 0,-0.8771097 -0.22452,-1.3435097 -1.13954,-1.3332897 z"
       id="path2558-2"
       style="opacity:0.8;color:#000000;fill:none;stroke:url(#linearGradient3298);stroke-width:1;stroke-linecap:butt;stroke-linejoin:miter;stroke-miterlimit:4;stroke-opacity:1;stroke-dasharray:none;stroke-dashoffset:0;marker:none;visibility:visible;display:inline;overflow:visible;enable-background:accumulate" />
    <path
       d="m 7.50001,10.5 0,4 -3,0 0,16 54.99999,0 0,-16 -32,0 0,-4 z"
       id="rect3340-6"
       style="color:#000000;fill:none;stroke:url(#linearGradient3295);stroke-width:0.99999976;stroke-linecap:round;stroke-linejoin:round;stroke-miterlimit:4;stroke-opacity:1;stroke-dasharray:none;stroke-dashoffset:0;marker:none;visibility:visible;display:inline;overflow:visible;enable-background:accumulate" />
    <path
       d="m 58,52.99993 c 0,0 0,7.9999 0,7.9999 2.06824,0.0151 5,-1.79237 5,-4.00046 0,-2.2081 -2.308,-3.99944 -5,-3.99944 z"
       id="path3411-3"
       style="opacity:0.3;fill:url(#radialGradient3281);fill-opacity:1;fill-rule:nonzero;stroke:none;stroke-width:1;marker:none;visibility:visible;display:inline;overflow:visible" />
    <rect
       width="52"
       height="8"
       x="6.0000038"
       y="53"
       id="rect4173-5"
       style="opacity:0.3;fill:url(#linearGradient3273);fill-opacity:1;fill-rule:nonzero;stroke:none;stroke-width:1;marker:none;visibility:visible;display:inline;overflow:visible" />
    <path
       d="m 6,52.99993 c 0,0 0,7.9999 0,7.9999 -2.06824,0.0151 -5,-1.79237 -5,-4.00046 0,-2.2081 2.308,-3.99944 5,-3.99944 z"
       id="path5018-5"
       style="opacity:0.3;fill:url(#radialGradient3270);fill-opacity:1;fill-rule:nonzero;stroke:none;stroke-width:1;marker:none;visibility:visible;display:inline;overflow:visible" />
    <path
       d="M 1.38464,27.5255 C -0.04730997,27.65952 0.71790003,28.52473 0.60373003,29.30362 1.00481,30.91856 3.24205,55.09259 3.5128,56.83455 c 0.45632,1.04628 2.1284,0.51048 3.18789,0.6433 17.612,0 35.224,0 52.836,0 1.45421,-0.11556 0.84961,-1.52516 1.05418,-2.33188 0.0829,-1.17381 2.27808,-18.86115 2.90913,-26.83224 -0.33529,-1.03394 -1.98599,-0.78823 -3.02087,-0.78823 -18.80785,0 -40.28664,0 -59.09449,0 l 0,0 z"
       id="path7314"
       style="color:#000000;fill:url(#linearGradient6563-1);fill-opacity:1;fill-rule:nonzero;stroke:none;stroke-width:0.99999982;marker:none;visibility:visible;display:inline;overflow:visible;enable-background:accumulate" />
    <path
       d="m 1.39371,27 61.21258,4.3e-4 C 63.45207,27.00043 64,27.47678 64,28.06898 L 61.00671,56.93103 C 61.00671,57.52324 60.32581,58 59.48004,58 L 4.51991,58 C 3.67413,58 2.99324,57.52324 2.99324,56.93103 L 2.8630083e-8,28.06897 C 2.8630083e-8,27.47676 0.54793003,27 1.39371,27 l 0,0 z"
       id="path2541"
       style="opacity:0.4;fill:url(#linearGradient3262);fill-opacity:1;stroke:none" />
    <path
       d="m 1.5,28.5221 c 1.15181,9.26788 1.92343,18.59416 2.93149,27.88442 l 55.13702,0.031 2.81796,-26.74073 c 0.2758,-1.42895 -0.40867,-1.13669 -0.79631,-1.17474 -20.19652,-9e-5 -39.89244,6e-5 -60.09016,0 z"
       id="path3437"
       style="opacity:0.5;color:#000000;fill:none;stroke:url(#linearGradient3483);stroke-width:0.99999994;stroke-linecap:round;stroke-linejoin:round;stroke-miterlimit:4;stroke-opacity:1;stroke-dasharray:none;stroke-dashoffset:0;marker:none;visibility:visible;display:inline;overflow:visible;enable-background:accumulate" />
    <path
       d="M 1.38464,27.5255 C -0.04730997,27.65952 0.71790003,28.52473 0.60373003,29.30362 1.00481,30.91856 3.24205,55.09259 3.5128,56.83455 c 0.45632,1.04628 2.1284,0.51048 3.18789,0.6433 17.612,0 35.224,0 52.836,0 1.45421,-0.11556 0.84961,-1.52516 1.05418,-2.33188 0.0829,-1.17381 2.27808,-18.86115 2.90913,-26.83224 -0.33529,-1.03394 -1.98599,-0.78823 -3.02087,-0.78823 -18.80785,0 -40.28664,0 -59.09449,0 l 0,0 z"
       id="path7314-5"
       style="opacity:0.3;color:#000000;fill:none;stroke:#000000;stroke-width:0.99999982;stroke-linecap:round;stroke-linejoin:round;stroke-miterlimit:4;stroke-opacity:1;stroke-dasharray:none;stroke-dashoffset:0;marker:none;visibility:visible;display:inline;overflow:visible;enable-background:accumulate" />
  </g>
</svg>

<svg xmlns="http://www.w3.org/2000/svg" xmlns:xlink="http://www.w3.org/1999/xlink" viewBox="0 0 64 64"><defs><linearGradient x1="97.539" y1="17.568" x2="97.539" y2="43.776" id="q" xlink:href="#a" gradientUnits="userSpaceOnUse" gradientTransform="matrix(1.31917 0 0 1.04394 -70.596 10.534)"/><linearGradient id="a"><stop offset="0" stop-color="#fff"/><stop offset=".017" stop-color="#fff" stop-opacity=".235"/><stop offset=".979" stop-color="#fff" stop-opacity=".157"/><stop offset="1" stop-color="#fff" stop-opacity=".392"/></linearGradient><linearGradient x1="22.935" y1="49.629" x2="22.809" y2="36.658" id="p" xlink:href="#b" gradientUnits="userSpaceOnUse" gradientTransform="matrix(1.52667 0 0 1.06897 -4.64 10.966)"/><linearGradient id="b"><stop offset="0" stop-opacity=".498"/><stop offset="1" stop-opacity="0"/></linearGradient><linearGradient x1="26.357" y1="46.255" x2="26.357" y2="117.413" id="o" xlink:href="#c" gradientUnits="userSpaceOnUse" gradientTransform="matrix(.50136 0 0 .4068 1.818 9.127)"/><linearGradient id="c"><stop offset="0" stop-color="#b4cee1"/><stop offset="1" stop-color="#5d9fcd"/></linearGradient><radialGradient cx="605.714" cy="486.648" r="117.143" fx="605.714" fy="486.648" id="n" xlink:href="#d" gradientUnits="userSpaceOnUse" gradientTransform="matrix(-.04016 0 0 .03294 30.204 40.92)"/><linearGradient id="d"><stop offset="0"/><stop offset="1" stop-opacity="0"/></linearGradient><linearGradient x1="302.857" y1="366.648" x2="302.857" y2="609.505" id="m" xlink:href="#e" gradientUnits="userSpaceOnUse" gradientTransform="matrix(.1077 0 0 .03294 -6.923 40.922)"/><linearGradient id="e"><stop offset="0" stop-opacity="0"/><stop offset=".5"/><stop offset="1" stop-opacity="0"/></linearGradient><radialGradient cx="605.714" cy="486.648" r="117.143" fx="605.714" fy="486.648" id="l" xlink:href="#d" gradientUnits="userSpaceOnUse" gradientTransform="matrix(.04016 0 0 .03294 33.796 40.92)"/><linearGradient x1="97.539" y1="8.81" x2="97.539" y2="44.261" id="k" xlink:href="#f" gradientUnits="userSpaceOnUse" gradientTransform="matrix(1.27497 0 0 1.2183 -67.16 -.34)"/><linearGradient id="f"><stop offset="0" stop-color="#fff"/><stop offset=".109" stop-color="#fff" stop-opacity=".235"/><stop offset=".979" stop-color="#fff" stop-opacity=".157"/><stop offset="1" stop-color="#fff" stop-opacity=".392"/></linearGradient><linearGradient x1="-51.786" y1="53.514" x2="-51.786" y2="3.634" id="j" xlink:href="#g" gradientUnits="userSpaceOnUse" gradientTransform="matrix(1.05638 0 0 1.07706 69.975 -2.53)"/><linearGradient id="g"><stop offset="0" stop-opacity=".322"/><stop offset="1" stop-opacity=".278"/></linearGradient><linearGradient id="h"><stop offset="0" stop-color="#f9f9f9"/><stop offset="1" stop-color="#d8d8d8"/></linearGradient><linearGradient x1="63.412" y1="19.664" x2="63.412" y2="21.216" id="i" xlink:href="#h" gradientUnits="userSpaceOnUse" gradientTransform="matrix(1.38472 0 0 1.3814 -70.62 -2.657)"/></defs><path d="M7.5 10a.5.5 0 0 0-.5.5V14H4.5a.5.5 0 0 0-.5.5V30h56V14.5a.5.5 0 0 0-.5-.5H28v-3.5a.5.5 0 0 0-.5-.5z" color="#000" fill="url(#i)" overflow="visible"/><path d="M8 9.5c-.915.01-1.5.456-1.5 1.333V13.5H4.994C4 13.5 3.5 13.974 3.5 14.842c.046 13.72 0 14.493 0 15.658l57-1.056V15c0-1-.5-1.5-1.5-1.5H28.5v-2.667c0-.877-.225-1.343-1.14-1.333z" opacity=".8" color="#000" fill="none" stroke="url(#j)" overflow="visible"/><path d="M7.5 10.5v4h-3v16h55v-16h-32v-4z" color="#000" fill="none" stroke="url(#k)" stroke-linecap="round" stroke-linejoin="round" overflow="visible"/><path d="M58 53v8c2.068.015 5-1.793 5-4 0-2.21-2.308-4-5-4z" opacity=".3" fill="url(#l)" overflow="visible"/><path opacity=".3" fill="url(#m)" overflow="visible" d="M6 53h52v8H6z"/><path d="M6 53v8c-2.068.015-5-1.793-5-4 0-2.21 2.308-4 5-4z" opacity=".3" fill="url(#n)" overflow="visible"/><path d="M1.385 27.526c-1.432.134-.667 1-.78 1.778.4 1.615 2.637 25.79 2.908 27.53.456 1.047 2.128.51 3.188.644h52.84c1.454-.116.85-1.525 1.054-2.332.084-1.174 2.28-18.86 2.91-26.832-.335-1.034-1.986-.788-3.02-.788h-59.1z" color="#000" fill="url(#o)" overflow="visible"/><path d="M1.394 27h61.212c.846 0 1.394.477 1.394 1.07l-2.993 28.86c0 .593-.68 1.07-1.527 1.07H4.52c-.846 0-1.527-.477-1.527-1.07L0 28.07C0 27.476.548 27 1.394 27z" opacity=".4" fill="url(#p)"/><path d="M1.5 28.522c1.152 9.268 1.923 18.594 2.93 27.885l55.14.03 2.816-26.74c.276-1.43-.408-1.137-.796-1.175H1.5z" opacity=".5" color="#000" fill="none" stroke="url(#q)" stroke-linecap="round" stroke-linejoin="round" overflow="visible"/><path d="M1.385 27.526c-1.432.134-.667 1-.78 1.778.4 1.615 2.637 25.79 2.908 27.53.456 1.047 2.128.51 3.188.644h52.84c1.454-.116.85-1.525 1.054-2.332.084-1.174 2.28-18.86 2.91-26.832-.335-1.034-1.986-.788-3.02-.788h-59.1z" opacity=".3" color="#000" fill="none" stroke="#000" stroke-linecap="round" stroke-linejoin="round" overflow="visible"/></svg>
